X:1
T:Once Again the Olden Story
T:Once Again the Olden Story
T:George Edgar Oliver
T:R. Edward Oxenford, before 1917
T:Public Domain Courtesy of the Cyber Hymnal™
T:Public Domain Courtesy of the Cyber Hymnal™
C:George Edgar Oliver
Z:Public Domain
Z:Courtesy of the Cyber Hymnal™
%%score ( 1 2 ) ( 3 4 )
L:1/8
Q:1/4=100
M:4/4
K:Ab
V:1 treble 
V:2 treble 
V:3 bass 
V:4 bass 
V:1
 [DE]2 [DEB]2 [DEB]2 [DEB]2 | (B=A) (Bc) [DEB]2 [DEB]2 | [CE]2 [CEA]2 [CEA]2 [CEA]2 | %3
w: 1.~Once a- gain the|old- * en * sto- ry:|It is sweet for|
w: 2.~Scat- tered o’er the|dis- * tant * na- tions|Ma- ny are, we|
 (AG) ([EA][Af]) [Ae]4 | ([FG-d][EGc]) ([EG-c][DGB]) [DG=A]2 [DGB]2 | c2 B2 [CA]2 [CG]2 | %6
w: all * to * sing;|How, * from * realms of|won- drous glo- ry,|
w: love * to- * day;|Yet * the * shep- herds’|re- ve- la- tions|
 (Fc) B2 B,2 x4 | [=DF]3 E E4 | (EE) (EF) (FG) (GF) | (FE) (=DE) [CEc]2 [CEc]2 | %10
w: Comes * our Sav-|ior and our|king! * Ev- * ery * heart *|this * day * re- joic-|
w: Rest * with them|so far a-|way! * Once * with * us, *|to * Je- * sus cling-|
 (F_G) (GF) (Fd) (dc) | (cB) (BF) [DFB]4 | (Gf) (fe) [Ge]2 [Gd]2 | c2 B2 [CA]2 [CF]2 | %14
w: es, * Beat- * ing * ’midst *|the * Chris- * tian|throng; * Count- * less thou-|sands raise their voic-|
w: ing, * They * will * thank- *|ful * praise * pro-|long, * Send * their voic-|es up- ward ring-|
 (GB) (=dc) B2 E2 | [CA]2 [=DF]2 E4 ||"^Refrain" [DE]2 [DEB]2 [DEB]2 [DEB]2 | (B=A) (Bc) [DEB]4 | %18
w: es, * And * re- peat|the joy- ous|song: “Bright and joy-|ful * is * the|
w: ing, * As * they join|the glad- some|song: * * *||
 [CE]2 [CEA]2 [CEA]2 [CEA]2 | (AG) ([EA][Af]) [Ae]4 | [C_Gc]2 [CGB]2 [CGA]2 [Gcf]2 | %21
w: morn, For to us|a * child * is|born; From the high-|
w: |||
 [_Gce]2 [EBd]2 [EFc]2 [CFB]2 | (Ac) E2 [CEAc]2 x2 | [DEB]3 [CEA] [CEA]4 |] %24
w: est realms of Hea-|ven * Un- to|us a son|
w: |||
V:2
 x8 | [DE]2 [DE]2 x4 | x8 | E2 x6 | x8 | [CG]4 x4 | B,4 (BA) B,4 | x3 E E4 | %8
 [F,D]2 [F,D]2 [F,D]2 [F,D]2 | C2 C2 x4 | [=A,E]2 [A,E]2 E2 [EF]2 | [DF]2 [DF]2 x4 | G2 G2 x4 | %13
 C4 x4 | E2 E6 | x4 E4 || x8 | [DE]2 [DE]2 x4 | x8 | E2 x6 | x8 | x8 | [CE]6 (BA) | x8 |] %24
V:3
 E,,2 [B,,E,G,]2 E,,2 [B,,E,G,]2 | E,,2 [B,,E,G,]2 E,,2 [B,,E,G,]2 | A,,,2 [E,A,]2 A,,,2 [E,A,]2 | %3
 (C=B,) (CD) [E,C]4 | E,,4 E,2 E,2 | [=E,,=E,]4 [F,,F,]2 [G,,E,]2 | [A,,F,]4 [B,,G,]4 x2 | %7
 [B,,A,]3 [E,G,] [E,G,]4 | E,8 | E,8 | F,8 | F,4 [B,,F,]4 | E,,2 [E,B,D]2 E,,2 [E,B,D]2 | %13
 [=E,,=E,]4 [F,,F,]2 [A,,A,]2 | B,2 =A,2 [B,,G,]2 [C,G,]2 | [F,,F,]2 [B,,A,]2 [E,G,]4 || %16
 E,,2 [B,,E,G,]2 E,,2 [B,,E,G,]2 | E,,2 [B,,E,G,]2 (E,,2 [B,,E,G,]2) | %18
 A,,,2 [D,A,]2 A,,,2 [D,A,]2 | (C=B,) (CD) [E,C]4 | A,8 | %21
 [=A,,,=A,,]2 [B,,,B,,]2 [C,,C,]2 [D,,D,]2 | [E,,E,]6 [E,,E,]2 | [E,,G,]3 [A,,A,] [A,,A,]4 |] %24
V:4
 x8 | x8 | x8 | E,2 E,2 x4 | x8 | x8 | x10 | x8 | B,,2 E,,2 B,,2 E,,2 | A,,2 F,,2 A,,2 E,,2 | %10
 C,2 F,,2 C,2 F,,2 | F,2 B,,2 x4 | x8 | x8 | B,,4 x4 | x8 || x8 | x8 | x8 | E,2 E,2 x4 | %20
 E,2 A,,2 E,2 A,,2 | x8 | x8 | x8 |] %24

